icons/image-5-filled.svg

<svg viewBox="0 0 24 24"><path fill="currentColor" fill-rule="evenodd" d="M1.4 12c0-5.9 4.7-10.6 10.6-10.6 5.9 0 10.6 4.7 10.6 10.6 0 5.9-4.7 10.6-10.6 10.6-5.9 0-10.6-4.7-10.6-10.6Zm10.6-8.6a8.6 8.6 0 0 0-7 13.6l2.7-2.7a1 1 0 0 1 1.4 0l1.7 1.7 4.7-4.7a1 1 0 0 1 1.4 0l3.3 3.3a8.6 8.6 0 0 0-8.2-11.2Zm-5.8 5.6a2.8 2.8 0 1 1 5.6 0 2.8 2.8 0 0 1-5.6 0Z" clip-rule="evenodd"/></svg>

<svg viewBox="0 0 24 24"><path fill="currentColor" fill-rule="evenodd" d="M1.4 12C1.4 6.1 6.1 1.4 12 1.4S22.6 6.1 22.6 12 17.9 22.6 12 22.6 1.4 17.9 1.4 12M12 3.4A8.6 8.6 0 0 0 5 17l2.7-2.7a1 1 0 0 1 1.4 0l1.7 1.7 4.7-4.7a1 1 0 0 1 1.4 0l3.3 3.3A8.6 8.6 0 0 0 12 3.4M6.2 9a2.8 2.8 0 1 1 5.6 0 2.8 2.8 0 0 1-5.6 0" clip-rule="evenodd"/></svg>
